www/assets/icons/assistant.svg

<svg xmlns="http://www.w3.org/2000/svg" width="24" height="24" viewBox="0 0 24 24" fill='currentColor'><path d="M19 1.5H5c-1.1 0-2 .9-2 2v14c0 1.1.9 2 2 2h4l3 3 3-3h4c1.1 0 2-.9 2-2v-14c0-1.1-.9-2-2-2m-5.12 10.88L12 16.5l-1.88-4.12L6 10.5l4.12-1.88L12 4.5l1.88 4.12L18 10.5z"/></svg>

<svg width="24" height="24" viewBox="0 0 24 24" xmlns="http://www.w3.org/2000/svg" fill='currentColor'><path d="M19 1.5H5C3.9 1.5 3 2.4 3 3.5V17.5C3 18.6 3.9 19.5 5 19.5H9L12 22.5L15 19.5H19C20.1 19.5 21 18.6 21 17.5V3.5C21 2.4 20.1 1.5 19 1.5ZM13.88 12.38L12 16.5L10.12 12.38L6 10.5L10.12 8.62L12 4.5L13.88 8.62L18 10.5L13.88 12.38Z"/></svg>
